Newaita-dark/actions/24/application-menu.svg

<?xml version="1.0" encoding="UTF-8"?>
<svg xmlns="http://www.w3.org/2000/svg" xmlns:xlink="http://www.w3.org/1999/xlink" width="24pt" height="24pt" viewBox="0 0 24 24" version="1.1">
<g id="surface1">
<path style=" stroke:none;fill-rule:nonzero;fill:rgb(74.117649%,74.117649%,74.117649%);fill-opacity:1;" d="M 3.472656 13.335938 C 4.296875 13.335938 4.960938 14 4.960938 14.824219 C 4.960938 15.644531 4.296875 16.3125 3.472656 16.3125 C 2.652344 16.3125 1.984375 15.644531 1.984375 14.824219 C 1.984375 14 2.652344 13.335938 3.472656 13.335938 Z M 3.472656 13.335938 "/>
<path style=" stroke:none;fill-rule:nonzero;fill:rgb(74.117649%,74.117649%,74.117649%);fill-opacity:1;" d="M 3.472656 7.878906 C 4.296875 7.878906 4.960938 8.542969 4.960938 9.367188 C 4.960938 10.1875 4.296875 10.855469 3.472656 10.855469 C 2.652344 10.855469 1.984375 10.1875 1.984375 9.367188 C 1.984375 8.542969 2.652344 7.878906 3.472656 7.878906 Z M 3.472656 7.878906 "/>
<path style=" stroke:none;fill-rule:nonzero;fill:rgb(74.117649%,74.117649%,74.117649%);fill-opacity:1;" d="M 3.472656 18.792969 C 4.296875 18.792969 4.960938 19.460938 4.960938 20.28125 C 4.960938 21.101562 4.296875 21.769531 3.472656 21.769531 C 2.652344 21.769531 1.984375 21.101562 1.984375 20.28125 C 1.984375 19.460938 2.652344 18.792969 3.472656 18.792969 Z M 3.472656 18.792969 "/>
<path style=" stroke:none;fill-rule:nonzero;fill:rgb(74.117649%,74.117649%,74.117649%);fill-opacity:1;" d="M 7.691406 19.535156 L 21.085938 19.535156 C 21.496094 19.535156 21.832031 19.871094 21.832031 20.28125 C 21.832031 20.691406 21.496094 21.027344 21.085938 21.027344 L 7.691406 21.027344 C 7.277344 21.027344 6.945312 20.691406 6.945312 20.28125 C 6.945312 19.871094 7.277344 19.535156 7.691406 19.535156 Z M 7.691406 19.535156 "/>
<path style=" stroke:none;fill-rule:nonzero;fill:rgb(74.117649%,74.117649%,74.117649%);fill-opacity:1;" d="M 7.691406 14.078125 L 21.085938 14.078125 C 21.496094 14.078125 21.832031 14.414062 21.832031 14.824219 C 21.832031 15.234375 21.496094 15.566406 21.085938 15.566406 L 7.691406 15.566406 C 7.277344 15.566406 6.945312 15.234375 6.945312 14.824219 C 6.945312 14.414062 7.277344 14.078125 7.691406 14.078125 Z M 7.691406 14.078125 "/>
<path style=" stroke:none;fill-rule:nonzero;fill:rgb(74.117649%,74.117649%,74.117649%);fill-opacity:1;" d="M 7.691406 8.621094 L 21.085938 8.621094 C 21.496094 8.621094 21.832031 8.957031 21.832031 9.367188 C 21.832031 9.777344 21.496094 10.109375 21.085938 10.109375 L 7.691406 10.109375 C 7.277344 10.109375 6.945312 9.777344 6.945312 9.367188 C 6.945312 8.957031 7.277344 8.621094 7.691406 8.621094 Z M 7.691406 8.621094 "/>
<path style=" stroke:none;fill-rule:nonzero;fill:rgb(74.117649%,74.117649%,74.117649%);fill-opacity:1;" d="M 7.691406 3.164062 L 21.085938 3.164062 C 21.496094 3.164062 21.832031 3.496094 21.832031 3.910156 C 21.832031 4.320312 21.496094 4.652344 21.085938 4.652344 L 7.691406 4.652344 C 7.277344 4.652344 6.945312 4.320312 6.945312 3.910156 C 6.945312 3.496094 7.277344 3.164062 7.691406 3.164062 Z M 7.691406 3.164062 "/>
<path style=" stroke:none;fill-rule:nonzero;fill:rgb(36.078432%,41.960785%,75.294119%);fill-opacity:1;" d="M 3.472656 2.421875 C 4.296875 2.421875 4.960938 3.085938 4.960938 3.910156 C 4.960938 4.730469 4.296875 5.398438 3.472656 5.398438 C 2.652344 5.398438 1.984375 4.730469 1.984375 3.910156 C 1.984375 3.085938 2.652344 2.421875 3.472656 2.421875 Z M 3.472656 2.421875 "/>
</g>
</svg>

<svg xmlns="http://www.w3.org/2000/svg" width="32" height="32" viewBox="0 0 24 24"><path d="M3.473 13.336a1.488 1.488 0 1 1 0 2.977 1.488 1.488 0 0 1 0-2.977zm0 0M3.473 7.879a1.488 1.488 0 1 1 0 2.977 1.488 1.488 0 0 1 0-2.977zm0 0M3.473 18.793a1.488 1.488 0 1 1 0 2.976 1.488 1.488 0 0 1 0-2.976zm0 0M7.691 19.535h13.395c.41 0 .746.336.746.746s-.336.746-.746.746H7.69a.746.746 0 1 1 0-1.492zm0 0M7.691 14.078h13.395c.41 0 .746.336.746.746s-.336.742-.746.742H7.69a.743.743 0 0 1-.746-.742c0-.41.332-.746.746-.746zm0 0M7.691 8.621h13.395c.41 0 .746.336.746.746s-.336.742-.746.742H7.69a.743.743 0 0 1-.746-.742c0-.41.332-.746.746-.746zm0 0M7.691 3.164h13.395a.745.745 0 0 1 0 1.488H7.69a.744.744 0 1 1 0-1.488zm0 0" fill="#bdbdbd"/><path d="M3.473 2.422a1.488 1.488 0 1 1 0 2.977 1.488 1.488 0 0 1 0-2.977zm0 0" fill="#5c6bc0"/></svg>
